www/assets/icons/sms_outline.svg

<svg xmlns="http://www.w3.org/2000/svg" width="24" height="24" viewBox="0 0 24 24" fill='currentColor'><path d="M20 2H4c-1.1 0-2 .9-2 2v18l4-4h14c1.1 0 2-.9 2-2V4c0-1.1-.9-2-2-2m0 14H5.17L4 17.17V4h16zM7 9h2v2H7zm8 0h2v2h-2zm-4 0h2v2h-2z"/></svg>

<svg width="24" height="24" viewBox="0 0 24 24" xmlns="http://www.w3.org/2000/svg" fill='currentColor'><path d="M20 2H4C2.9 2 2 2.9 2 4V22L6 18H20C21.1 18 22 17.1 22 16V4C22 2.9 21.1 2 20 2ZM20 16H5.17L4 17.17V4H20V16ZM7 9H9V11H7V9ZM15 9H17V11H15V9ZM11 9H13V11H11V9Z"/></svg>
